Dominus_Dark_Funeral/22/apps/video-player.svg

<svg xmlns="http://www.w3.org/2000/svg" width="24" height="24"><path d="M12.15.35a11.65 11.65 0 1 0 0 23.3 11.65 11.65 0 0 0 0-23.3zm.12 2.37a9.28 9.28 0 0 1 .92.07 9.28 9.28 0 0 1 .92.17 9.28 9.28 0 0 1 .88.25 9.28 9.28 0 0 1 .87.35 9.28 9.28 0 0 1 .83.43 9.28 9.28 0 0 1 .77.5 9.28 9.28 0 0 1 .73.59 9.28 9.28 0 0 1 .65.65 9.28 9.28 0 0 1 .6.7 9.28 9.28 0 0 1 .5.78 9.28 9.28 0 0 1 .45.82 9.28 9.28 0 0 1 .35.85 9.28 9.28 0 0 1 .28.9 9.28 9.28 0 0 1 .17.9 9.28 9.28 0 0 1 .08.93 9.28 9.28 0 0 1 0 .39 9.28 9.28 0 0 1-.03.92 9.28 9.28 0 0 1-.14.92 9.28 9.28 0 0 1-.23.9 9.28 9.28 0 0 1-.32.87 9.28 9.28 0 0 1-.4.84 9.28 9.28 0 0 1-.5.8 9.28 9.28 0 0 1-.55.73 9.28 9.28 0 0 1-.63.68 9.28 9.28 0 0 1-.7.6 9.28 9.28 0 0 1-.75.55 9.28 9.28 0 0 1-.8.46 9.28 9.28 0 0 1-.85.37 9.28 9.28 0 0 1-.89.3 9.28 9.28 0 0 1-.9.2 9.28 9.28 0 0 1-.92.1 9.28 9.28 0 0 1-.93.04 9.28 9.28 0 0 1-.92-.07 9.28 9.28 0 0 1-.91-.17 9.28 9.28 0 0 1-.9-.25 9.28 9.28 0 0 1-.86-.35 9.28 9.28 0 0 1-.82-.43 9.28 9.28 0 0 1-.78-.5 9.28 9.28 0 0 1-.72-.59 9.28 9.28 0 0 1-.66-.65 9.28 9.28 0 0 1-.6-.7 9.28 9.28 0 0 1-.5-.78 9.28 9.28 0 0 1-.45-.82 9.28 9.28 0 0 1-.35-.86 9.28 9.28 0 0 1-.27-.89 9.28 9.28 0 0 1-.18-.9 9.28 9.28 0 0 1-.08-.93 9.28 9.28 0 0 1 0-.4 9.28 9.28 0 0 1 .04-.92 9.28 9.28 0 0 1 .13-.9 9.28 9.28 0 0 1 .23-.91 9.28 9.28 0 0 1 .33-.88 9.28 9.28 0 0 1 .4-.84 9.28 9.28 0 0 1 .48-.78 9.28 9.28 0 0 1 .57-.73 9.28 9.28 0 0 1 .62-.69 9.28 9.28 0 0 1 .7-.6A9.28 9.28 0 0 1 7 4.19a9.28 9.28 0 0 1 .8-.46 9.28 9.28 0 0 1 .85-.38 9.28 9.28 0 0 1 .88-.3 9.28 9.28 0 0 1 .9-.2 9.28 9.28 0 0 1 .92-.1 9.28 9.28 0 0 1 .93-.03zm-4 4.58c-.08.05-.02 4.72-.02 4.82 0 .09-.06 4.72.02 4.77.08.04 3.98-2.35 4.06-2.4.08-.05 4-2.3 4-2.4 0-.1-3.96-2.37-4.04-2.41A84.51 84.51 0 0 0 8.27 7.3z" fill="#e6e6e6"/></svg>

<?xml version="1.0" encoding="UTF-8" standalone="no"?>
<svg
   xmlns:dc="http://purl.org/dc/elements/1.1/"
   xmlns:cc="http://creativecommons.org/ns#"
   xmlns:rdf="http://www.w3.org/1999/02/22-rdf-syntax-ns#"
   xmlns:svg="http://www.w3.org/2000/svg"
   xmlns="http://www.w3.org/2000/svg"
   xmlns:sodipodi="http://sodipodi.sourceforge.net/DTD/sodipodi-0.dtd"
   xmlns:inkscape="http://www.inkscape.org/namespaces/inkscape"
   width="24"
   height="24"
   version="1.1"
   id="svg4"
   sodipodi:docname="video-player.svg"
   inkscape:version="0.92.4 (5da689c313, 2019-01-14)">
  <metadata
     id="metadata10">
    <rdf:RDF>
      <cc:Work
         rdf:about="">
        <dc:format>image/svg+xml</dc:format>
        <dc:type
           rdf:resource="http://purl.org/dc/dcmitype/StillImage" />
        <dc:title></dc:title>
      </cc:Work>
    </rdf:RDF>
  </metadata>
  <defs
     id="defs8" />
  <sodipodi:namedview
     pagecolor="#ffffff"
     bordercolor="#666666"
     borderopacity="1"
     objecttolerance="10"
     gridtolerance="10"
     guidetolerance="10"
     inkscape:pageopacity="0"
     inkscape:pageshadow="2"
     inkscape:window-width="1138"
     inkscape:window-height="480"
     id="namedview6"
     showgrid="false"
     inkscape:zoom="9.8333333"
     inkscape:cx="1.0677966"
     inkscape:cy="12"
     inkscape:window-x="0"
     inkscape:window-y="25"
     inkscape:window-maximized="0"
     inkscape:current-layer="svg4" />
  <path
     d="m 12.15,0.35 a 11.65,11.65 0 1 0 0,23.3 11.65,11.65 0 0 0 0,-23.3 z m 0.12,2.37 a 9.28,9.28 0 0 1 0.92,0.07 9.28,9.28 0 0 1 0.92,0.17 9.28,9.28 0 0 1 0.88,0.25 9.28,9.28 0 0 1 0.87,0.35 9.28,9.28 0 0 1 0.83,0.43 9.28,9.28 0 0 1 0.77,0.5 9.28,9.28 0 0 1 0.73,0.59 9.28,9.28 0 0 1 0.65,0.65 9.28,9.28 0 0 1 0.6,0.7 9.28,9.28 0 0 1 0.5,0.78 9.28,9.28 0 0 1 0.45,0.82 9.28,9.28 0 0 1 0.35,0.85 9.28,9.28 0 0 1 0.28,0.9 9.28,9.28 0 0 1 0.17,0.9 9.28,9.28 0 0 1 0.08,0.93 9.28,9.28 0 0 1 0,0.39 9.28,9.28 0 0 1 -0.03,0.92 9.28,9.28 0 0 1 -0.14,0.92 9.28,9.28 0 0 1 -0.23,0.9 9.28,9.28 0 0 1 -0.32,0.87 9.28,9.28 0 0 1 -0.4,0.84 9.28,9.28 0 0 1 -0.5,0.8 9.28,9.28 0 0 1 -0.55,0.73 9.28,9.28 0 0 1 -0.63,0.68 9.28,9.28 0 0 1 -0.7,0.6 9.28,9.28 0 0 1 -0.75,0.55 9.28,9.28 0 0 1 -0.8,0.46 9.28,9.28 0 0 1 -0.85,0.37 9.28,9.28 0 0 1 -0.89,0.3 9.28,9.28 0 0 1 -0.9,0.2 9.28,9.28 0 0 1 -0.92,0.1 9.28,9.28 0 0 1 -0.93,0.04 A 9.28,9.28 0 0 1 10.81,21.21 9.28,9.28 0 0 1 9.9,21.04 9.28,9.28 0 0 1 9,20.79 9.28,9.28 0 0 1 8.14,20.44 9.28,9.28 0 0 1 7.32,20.01 9.28,9.28 0 0 1 6.54,19.51 9.28,9.28 0 0 1 5.82,18.92 9.28,9.28 0 0 1 5.16,18.27 9.28,9.28 0 0 1 4.56,17.57 9.28,9.28 0 0 1 4.06,16.79 9.28,9.28 0 0 1 3.61,15.97 9.28,9.28 0 0 1 3.26,15.11 9.28,9.28 0 0 1 2.99,14.22 9.28,9.28 0 0 1 2.81,13.32 9.28,9.28 0 0 1 2.73,12.39 9.28,9.28 0 0 1 2.73,11.99 9.28,9.28 0 0 1 2.77,11.07 9.28,9.28 0 0 1 2.9,10.17 9.28,9.28 0 0 1 3.13,9.26 9.28,9.28 0 0 1 3.46,8.38 9.28,9.28 0 0 1 3.86,7.54 9.28,9.28 0 0 1 4.34,6.76 9.28,9.28 0 0 1 4.91,6.03 9.28,9.28 0 0 1 5.53,5.34 9.28,9.28 0 0 1 6.23,4.74 9.28,9.28 0 0 1 7,4.19 9.28,9.28 0 0 1 7.8,3.73 9.28,9.28 0 0 1 8.65,3.35 a 9.28,9.28 0 0 1 0.88,-0.3 9.28,9.28 0 0 1 0.9,-0.2 9.28,9.28 0 0 1 0.92,-0.1 9.28,9.28 0 0 1 0.93,-0.03 z m -4,4.58 c -0.08,0.05 -0.02,4.72 -0.02,4.82 0,0.09 -0.06,4.72 0.02,4.77 0.08,0.04 3.98,-2.35 4.06,-2.4 0.08,-0.05 4,-2.3 4,-2.4 0,-0.1 -3.96,-2.37 -4.04,-2.41 A 84.51,84.51 0 0 0 8.27,7.3 Z"
     id="path2"
     inkscape:connector-curvature="0"
     style="fill:#e6e6e6" />
</svg>
